X:1
T:The Turk's March
B:Martial Music of the French and Indian War Period
M:6/8
L:1/8
Q:1/8=280
K:G
|: d/c/|B2 B Bcd|G2 G GFG|A2 A ABc|BAB G2 A|B2 B B^cd|^cdB A2 g|fed AB^c|dAF D2 :|
|: d|e2 d de=f|e2 d e2 d|c2 B A>BG|FEF D2 D|G2 G GAF|{F}E3-E2 F|A2 A ABG|FEF D2 d|BAG DEF|G3-G2 :|
